X: 160567
T: Pat Ward's
S: Treoir
Z: B.Black
M: 12/8
L: 1/8
R: slide
K: D
A2 G | FED A2 D B2 D A2 D | F2 A A2 F E3 E2 G |\
FED A2 D B2 D A2 D |
|1 Bcd e2 c d2 B :|2 Bcd e2 c d3 dcB ||\
A2 d f2 d e2 d f2 d |
A2 d f2 d e3 d2 f | A2 d f2 d e2 d e2 f |\
g2 f e2 d B3 A2 F | 
A2 d f2 d e2 d f2 d |A2 d f2 d e3 e2 f |\
gfe fed fed cBA |
|1 Bcd edc d3 d2 B :|2 Bcd edc d3 d3 ||
